img/pricing/icon-3.svg

<svg width="72" height="88" viewBox="0 0 72 88" fill="none" xmlns="http://www.w3.org/2000/svg">
<g clip-path="url(#clip0_116_447)">
<path d="M69.3 87.9002C71.4 87.9002 72.7 85.5002 71.5 83.8002C69.8 81.2002 66.8 79.5002 63.5 79.5002C62.6 79.5002 61.8 79.6002 61 79.8002C58.8 75.8002 54.6 73.1002 49.8 73.1002C49.3 73.1002 48.9 73.1002 48.4 73.2002V68.7002H23.6V74.3002C19 74.3002 15.1 76.8002 13 80.5002C11.7 79.8002 10.1 79.4002 8.49998 79.4002C5.09998 79.4002 2.19998 81.1002 0.499976 83.7002C-0.700024 85.5002 0.599976 87.8002 2.69998 87.8002H69.3V87.9002Z" fill="url(#paint0_linear_116_447)"/>
<path opacity="0.07" d="M49.7996 73.1002C49.2996 73.1002 48.8996 73.1002 48.3996 73.2002V68.7002H23.5996V74.3002H44.5996C48.8996 74.3002 52.8996 76.8002 54.6996 80.8002C54.7996 80.9002 54.7996 81.0002 54.7996 81.2002C54.8996 81.3002 54.8996 81.5002 54.9996 81.6002C55.2996 82.4002 56.2996 82.7002 56.9996 82.1002C58.0996 81.0002 59.4996 80.2002 61.0996 79.8002C58.8996 75.8002 54.6996 73.1002 49.7996 73.1002ZM10.8996 85.4002C11.1996 85.4002 11.4996 85.2002 11.5996 84.8002C11.7996 83.3002 12.2996 81.8002 12.9996 80.5002C11.6996 79.8002 10.0996 79.4002 8.49961 79.4002C7.29961 79.4002 6.09961 79.6002 5.09961 80.0002C7.39961 80.9002 9.29961 82.7002 10.3996 84.9002C10.3996 85.3002 10.5996 85.4002 10.8996 85.4002Z" fill="black"/>
<path d="M14.1009 42.4999L11.2009 45.3999C7.40092 49.1999 5.30092 54.2999 5.30092 59.6999C5.29691 60.1475 5.38212 60.5914 5.55157 61.0057C5.72102 61.4201 5.97131 61.7965 6.28783 62.113C6.60435 62.4295 6.98076 62.6798 7.39507 62.8492C7.80939 63.0187 8.25331 63.1039 8.70092 63.0999H22.3009V39.8999H20.6009C18.1009 39.8999 15.8009 40.8999 14.1009 42.4999Z" fill="url(#paint1_linear_116_447)"/>
<path d="M57.9008 42.4999L60.8008 45.3999C64.6008 49.1999 66.7008 54.2999 66.7008 59.6999C66.7048 60.1475 66.6196 60.5914 66.4501 61.0057C66.2807 61.4201 66.0304 61.7965 65.7139 62.113C65.3973 62.4295 65.0209 62.6798 64.6066 62.8492C64.1923 63.0187 63.7484 63.1039 63.3008 63.0999H49.8008V39.8999H51.5008C53.9008 39.8999 56.2008 40.8999 57.9008 42.4999Z" fill="url(#paint2_linear_116_447)"/>
<path d="M54.3996 30.8999V59.9999H17.5996V30.8999C17.5996 21.3999 21.3996 12.2999 28.0996 5.59985L31.8996 1.79985C33.0187 0.695717 34.5275 0.0766602 36.0996 0.0766602C37.6717 0.0766602 39.1805 0.695717 40.2996 1.79985L44.0996 5.59985C50.6996 12.2999 54.3996 21.3999 54.3996 30.8999Z" fill="url(#paint3_linear_116_447)"/>
<path opacity="0.07" d="M43.9 5.59987L40.1 1.79987C38 -0.300128 34.8 -0.500129 32.5 1.19987C32.8 1.39987 33 1.59987 33.2 1.79987L37 5.59987C43.7 12.2999 47.5 21.3999 47.5 30.8999V59.9999H54.4V30.8999C54.4 21.3999 50.7 12.2999 43.9 5.59987Z" fill="black"/>
<path d="M31.8008 1.8002L28.0008 5.6002C24.0008 9.7002 21.0008 14.6002 19.3008 20.0002H52.7008C51.0008 14.6002 48.0008 9.7002 43.9008 5.6002L40.1008 1.8002C37.9008 -0.499805 34.1008 -0.499805 31.8008 1.8002Z" fill="url(#paint4_linear_116_447)"/>
<path d="M36.0008 52.9C43.6008 52.9 49.7008 46.8 49.7008 39.2C49.7008 31.6 43.6008 25.5 36.0008 25.5C28.4008 25.5 22.3008 31.6 22.3008 39.2C22.3008 46.8 28.4008 52.9 36.0008 52.9Z" fill="url(#paint5_linear_116_447)"/>
<path opacity="0.05" d="M35.9996 25.6001C34.7996 25.6001 33.6996 25.8001 32.5996 26.0001C38.4996 27.5001 42.7996 32.9001 42.7996 39.2001C42.7996 45.6001 38.4996 50.9001 32.5996 52.4001C33.6996 52.7001 34.8996 52.8001 35.9996 52.8001C43.5996 52.8001 49.6996 46.7001 49.6996 39.1001C49.6996 31.7001 43.5996 25.6001 35.9996 25.6001Z" fill="black"/>
<path d="M35.9996 47.0998C40.2996 47.0998 43.8996 43.5998 43.8996 39.1998C43.8996 34.7998 40.3996 31.2998 35.9996 31.2998C31.5996 31.2998 28.0996 34.7998 28.0996 39.1998C28.0996 43.5998 31.6996 47.0998 35.9996 47.0998Z" fill="url(#paint6_linear_116_447)"/>
<path opacity="0.1" d="M36.0008 31.3999C35.2573 31.4013 34.5174 31.5022 33.8008 31.6999C37.1008 32.5999 39.5008 35.6999 39.5008 39.2999C39.5008 42.8999 37.1008 45.8999 33.8008 46.8999C34.5008 47.0999 35.2008 47.1999 36.0008 47.1999C38.0944 47.1946 40.1007 46.3606 41.5811 44.8802C43.0615 43.3998 43.8955 41.3935 43.9008 39.2999C43.8955 37.2063 43.0615 35.2 41.5811 33.7196C40.1007 32.2392 38.0944 31.4052 36.0008 31.3999Z" fill="black"/>
<path d="M17.5996 58V65.9C17.5996 68.2 19.3996 70 21.6996 70H50.2996C52.5996 70 54.3996 68.2 54.3996 65.9V58H17.5996Z" fill="url(#paint7_linear_116_447)"/>
<path opacity="0.1" d="M47.5 69.9999H50.3C52.6 69.9999 54.4 68.1999 54.4 65.8999V57.9999H47.5V69.9999ZM43.9 5.59987L40.1 1.79987C38 -0.300128 34.8 -0.500129 32.5 1.19987C32.8 1.39987 33 1.59987 33.2 1.79987L37 5.59987C41.1 9.69987 44.1 14.5999 45.8 19.9999H52.7C51 14.5999 48 9.69987 43.9 5.59987Z" fill="black"/>
</g>
<defs>
<linearGradient id="paint0_linear_116_447" x1="36" y1="72.4992" x2="36" y2="95.4992" gradientUnits="userSpaceOnUse">
<stop stop-color="white"/>
<stop offset="0.416" stop-color="#F5F4F8"/>
<stop offset="1" stop-color="#EFECF3"/>
</linearGradient>
<linearGradient id="paint1_linear_116_447" x1="4.53892" y1="51.5339" x2="19.8129" y2="51.5339" gradientUnits="userSpaceOnUse">
<stop stop-color="#9714F4"/>
<stop offset="1" stop-color="#A237EE"/>
</linearGradient>
<linearGradient id="paint2_linear_116_447" x1="49.0708" y1="51.5339" x2="64.3438" y2="51.5339" gradientUnits="userSpaceOnUse">
<stop stop-color="#9714F4"/>
<stop offset="1" stop-color="#A237EE"/>
</linearGradient>
<linearGradient id="paint3_linear_116_447" x1="17.4816" y1="30.0249" x2="53.9236" y2="30.0249" gradientUnits="userSpaceOnUse">
<stop stop-color="white"/>
<stop offset="0.416" stop-color="#F5F4F8"/>
<stop offset="1" stop-color="#EFECF3"/>
</linearGradient>
<linearGradient id="paint4_linear_116_447" x1="17.8368" y1="10.0392" x2="48.0028" y2="10.0392" gradientUnits="userSpaceOnUse">
<stop stop-color="#9714F4"/>
<stop offset="1" stop-color="#A237EE"/>
</linearGradient>
<linearGradient id="paint5_linear_116_447" x1="19.5018" y1="39.107" x2="49.5388" y2="39.348" gradientUnits="userSpaceOnUse">
<stop stop-color="#9E2BF0"/>
<stop offset="0.606" stop-color="#B960FF"/>
<stop offset="1" stop-color="#A237EE"/>
</linearGradient>
<linearGradient id="paint6_linear_116_447" x1="28.1876" y1="39.2438" x2="43.6346" y2="39.2438" gradientUnits="userSpaceOnUse">
<stop stop-color="#9714F4"/>
<stop offset="1" stop-color="#9401A1"/>
</linearGradient>
<linearGradient id="paint7_linear_116_447" x1="15.9886" y1="64.031" x2="49.2246" y2="64.031" gradientUnits="userSpaceOnUse">
<stop stop-color="#9714F4"/>
<stop offset="1" stop-color="#A237EE"/>
</linearGradient>
<clipPath id="clip0_116_447">
<rect width="72" height="88" fill="white"/>
</clipPath>
</defs>
</svg>

<svg xmlns="http://www.w3.org/2000/svg" viewBox="0 0 72 88"  xmlns:v="https://vecta.io/nano"><style><![CDATA[.L{enable-background:new}]]></style><linearGradient id="A" gradientUnits="userSpaceOnUse" x1="36" y1="72.499" x2="36" y2="95.499"><stop offset="0" stop-color="#fff"/><stop offset=".416" stop-color="#f5f4f8"/><stop offset="1" stop-color="#efecf3"/></linearGradient><path d="M69.3 87.9c2.1 0 3.4-2.4 2.2-4.1-1.7-2.6-4.7-4.3-8-4.3-.9 0-1.7.1-2.5.3-2.2-4-6.4-6.7-11.2-6.7-.5 0-.9 0-1.4.1v-4.5H23.6v5.6c-4.6 0-8.5 2.5-10.6 6.2-1.3-.7-2.9-1.1-4.5-1.1-3.4 0-6.3 1.7-8 4.3-1.2 1.8.1 4.1 2.2 4.1h66.6z" fill="url(#A)"/><path d="M49.8 73.1c-.5 0-.9 0-1.4.1v-4.5H23.6v5.6h21c4.3 0 8.3 2.5 10.1 6.5.1.1.1.2.1.4.1.1.1.3.2.4.3.8 1.3 1.1 2 .5 1.1-1.1 2.5-1.9 4.1-2.3-2.2-4-6.4-6.7-11.3-6.7zM10.9 85.4c.3 0 .6-.2.7-.6.2-1.5.7-3 1.4-4.3-1.3-.7-2.9-1.1-4.5-1.1-1.2 0-2.4.2-3.4.6 2.3.9 4.2 2.7 5.3 4.9 0 .4.2.5.5.5z" opacity=".07" class="L"/><linearGradient id="B" gradientUnits="userSpaceOnUse" x1="4.538" y1="51.534" x2="19.812" y2="51.534"><stop offset="0" stop-color="#ff9aa1"/><stop offset="1" stop-color="#f23c49"/></linearGradient><path d="M14.1 42.5l-2.9 2.9c-3.8 3.8-5.9 8.9-5.9 14.3a3.37 3.37 0 0 0 3.4 3.4h13.6V39.9h-1.7c-2.5 0-4.8 1-6.5 2.6z" fill="url(#B)"/><linearGradient id="C" gradientUnits="userSpaceOnUse" x1="49.07" y1="51.534" x2="64.343" y2="51.534"><stop offset="0" stop-color="#ff9aa1"/><stop offset="1" stop-color="#f23c49"/></linearGradient><path d="M57.9 42.5l2.9 2.9c3.8 3.8 5.9 8.9 5.9 14.3a3.37 3.37 0 0 1-3.4 3.4H49.8V39.9h1.7c2.4 0 4.7 1 6.4 2.6z" fill="url(#C)"/><linearGradient id="D" gradientUnits="userSpaceOnUse" x1="17.482" y1="30.025" x2="53.924" y2="30.025"><stop offset="0" stop-color="#fff"/><stop offset=".416" stop-color="#f5f4f8"/><stop offset="1" stop-color="#efecf3"/></linearGradient><path d="M54.4 30.9V60H17.6V30.9c0-9.5 3.8-18.6 10.5-25.3l3.8-3.8a5.98 5.98 0 0 1 8.4 0l3.8 3.8c6.6 6.7 10.3 15.8 10.3 25.3z" fill="url(#D)"/><path d="M43.9 5.6l-3.8-3.8C38-.3 34.8-.5 32.5 1.2c.3.2.5.4.7.6L37 5.6c6.7 6.7 10.5 15.8 10.5 25.3V60h6.9V30.9c0-9.5-3.7-18.6-10.5-25.3z" opacity=".07" class="L"/><linearGradient id="E" gradientUnits="userSpaceOnUse" x1="17.836" y1="10.039" x2="48.002" y2="10.039"><stop offset="0" stop-color="#ff9aa1"/><stop offset="1" stop-color="#f23c49"/></linearGradient><path d="M31.8 1.8L28 5.6c-4 4.1-7 9-8.7 14.4h33.4C51 14.6 48 9.7 43.9 5.6l-3.8-3.8c-2.2-2.3-6-2.3-8.3 0z" fill="url(#E)"/><linearGradient id="F" gradientUnits="userSpaceOnUse" x1="19.501" y1="39.107" x2="49.538" y2="39.348"><stop offset="0" stop-color="#fff3d9"/><stop offset=".606" stop-color="#ffcc60"/><stop offset="1" stop-color="#fdbc31"/></linearGradient><path d="M36 52.9c7.6 0 13.7-6.1 13.7-13.7S43.6 25.5 36 25.5s-13.7 6.1-13.7 13.7S28.4 52.9 36 52.9z" fill="url(#F)"/><path d="M36 25.6c-1.2 0-2.3.2-3.4.4 5.9 1.5 10.2 6.9 10.2 13.2 0 6.4-4.3 11.7-10.2 13.2 1.1.3 2.3.4 3.4.4 7.6 0 13.7-6.1 13.7-13.7 0-7.4-6.1-13.5-13.7-13.5z" opacity=".05" class="L"/><linearGradient id="G" gradientUnits="userSpaceOnUse" x1="28.188" y1="39.244" x2="43.635" y2="39.244"><stop offset="0" stop-color="#3bcffe"/><stop offset="1" stop-color="#3c76f2"/></linearGradient><path d="M36,47.1c4.3,0,7.9-3.5,7.9-7.9s-3.5-7.9-7.9-7.9s-7.9,3.5-7.9,7.9S31.7,47.1,36,47.1z" fill="url(#G)"/><path d="M36 31.4a8.33 8.33 0 0 0-2.2.3c3.3.9 5.7 4 5.7 7.6s-2.4 6.6-5.7 7.6c.7.2 1.4.3 2.2.3a7.92 7.92 0 0 0 7.9-7.9 7.92 7.92 0 0 0-7.9-7.9z" opacity=".1" class="L"/><linearGradient id="H" gradientUnits="userSpaceOnUse" x1="15.989" y1="64.031" x2="49.225" y2="64.031"><stop offset="0" stop-color="#ff9aa1"/><stop offset="1" stop-color="#f23c49"/></linearGradient><path d="M17.6,58v7.9c0,2.3,1.8,4.1,4.1,4.1h28.6c2.3,0,4.1-1.8,4.1-4.1V58H17.6z" fill="url(#H)"/><path d="M47.5 70h2.8c2.3 0 4.1-1.8 4.1-4.1V58h-6.9v12zM43.9 5.6l-3.8-3.8C38-.3 34.8-.5 32.5 1.2c.3.2.5.4.7.6L37 5.6c4.1 4.1 7.1 9 8.8 14.4h6.9C51 14.6 48 9.7 43.9 5.6z" opacity=".1" class="L"/></svg>
